X: 4080
T: Blind Rhinoceros
R: hornpipe
M: 4/4
K: Bminor
|:f2Bd fBdf|gfed c2d2|e2de fedc|cdef gfed|
f2Bd fBdf|gfed c2d2|e2de eABc|cedc B4:|
|:f2Bd fBdB|fBdB fBdB|g2gf egec|ABcd e2 (3efg|
f2ed Bcde|fBdB fBdB|e2de eABc|cedc B4:|

